X:326
T:Trim the velvet
R:Reel
O:Ireland
B:O'Neill's 1320
S:O'Neill's
Z:Transcription:Trish O'Neil, minor arr.(?), chords:Mike Long
M:C|
L:1/8
K:G
"G"G2BG "D"AGFD|"G"G2BG "D"cAFA|"G"G2BG "D"AGFD|"C"defd "D"cAFA:|\
"G"~dcde dBGB|"G"dedB "D"cAFA|
"G"~dcde dBGB|"C"defd "D"cAFA|\
"G"d3e dBGB|"G"dedB "D"cAFA|"G"d2df "C"e2ef|"C"gefd "D"cAFA|]
|:"G"g2gb "D"a2af|"G"g2ab "D"c'baf|"G"gfgb abaf|"C"defd "D"cAFA:|\
"G"(3(BAG) dG BGGA|"G"(3(BAG) dB "D"cAFA|
"G"(3(BAG) dG BGGB|"C"defd "D"cAFA|\
"G"(3(BAG) dG BGGA|"G"(3(BAG) dB "D"cAFA|"G"BG~G2 "C"cA~A2|"C"defd "D"cAFA|]
